IMB-X-Files/The-Ambassadors-Assets/65f43207d485843526416850_IMG-5.svg

<svg fill="none" height="341" viewBox="0 0 626 341" width="626" xmlns="http://www.w3.org/2000/svg" xmlns:xlink="http://www.w3.org/1999/xlink"><linearGradient id="a"><stop offset="0" stop-color="#d9d9d9"/><stop offset=".640625" stop-color="#d9d9d9" stop-opacity=".25"/><stop offset="1" stop-color="#d9d9d9" stop-opacity="0"/></linearGradient><linearGradient id="b" gradientUnits="userSpaceOnUse" x1="75" x2="75" xlink:href="#a" y1="148" y2="341"/><linearGradient id="c" gradientUnits="userSpaceOnUse" x1="-.000001" x2="189.969" y1="341" y2="203.035"><stop offset="0" stop-color="#10b981"/><stop offset="1" stop-color="#d9f99d"/></linearGradient><linearGradient id="d" gradientUnits="userSpaceOnUse" x1="17" x2="158.452" y1="341" y2="233.954"><stop offset="0" stop-color="#d9f99d"/><stop offset="1" stop-color="#10b981"/></linearGradient><linearGradient id="e" gradientUnits="userSpaceOnUse" x1="234" x2="234" xlink:href="#a" y1="148" y2="341"/><linearGradient id="f" gradientUnits="userSpaceOnUse" x1="159" x2="348.969" y1="341" y2="203.035"><stop offset="0" stop-color="#f97316"/><stop offset="1" stop-color="#fef08a"/></linearGradient><linearGradient id="g" gradientUnits="userSpaceOnUse" x1="177" x2="318.112" y1="341" y2="235.14"><stop offset="0" stop-color="#fef08a"/><stop offset=".588542" stop-color="#f97316"/><stop offset="1" stop-color="#f97316"/></linearGradient><linearGradient id="h" gradientUnits="userSpaceOnUse" x1="393" x2="393" xlink:href="#a" y1="148" y2="341"/><linearGradient id="i" gradientUnits="userSpaceOnUse" x1="318" x2="507.969" y1="341" y2="203.035"><stop offset="0" stop-color="#3b82f6"/><stop offset="1" stop-color="#e0f2fe"/></linearGradient><linearGradient id="j" gradientUnits="userSpaceOnUse" x1="336" x2="477.112" y1="341" y2="235.14"><stop offset="0" stop-color="#e0f2fe"/><stop offset="1" stop-color="#3b82f6"/></linearGradient><linearGradient id="k" gradientUnits="userSpaceOnUse" x1="552" x2="552" xlink:href="#a" y1="148" y2="341"/><linearGradient id="l" gradientUnits="userSpaceOnUse" x1="477" x2="666.969" y1="341" y2="203.035"><stop offset="0" stop-color="#9333ea"/><stop offset="1" stop-color="#ddd6fe"/></linearGradient><linearGradient id="m" gradientUnits="userSpaceOnUse" x1="495" x2="636.112" y1="341" y2="235.14"><stop offset="0" stop-color="#ddd6fe"/><stop offset="1" stop-color="#9333ea"/></linearGradient><clipPath id="n"><path d="m0 0h626v341h-626z"/></clipPath><mask id="o" height="193" maskUnits="userSpaceOnUse" width="150" x="0" y="148"><rect fill="url(#b)" height="193" rx="8" width="150" y="148"/></mask><mask id="p" height="193" maskUnits="userSpaceOnUse" width="150" x="159" y="148"><rect fill="url(#e)" height="193" rx="8" width="150" x="159" y="148"/></mask><mask id="q" height="193" maskUnits="userSpaceOnUse" width="150" x="318" y="148"><rect fill="url(#h)" height="193" rx="8" width="150" x="318" y="148"/></mask><mask id="r" height="193" maskUnits="userSpaceOnUse" width="150" x="477" y="148"><rect fill="url(#k)" height="193" rx="8" width="150" x="477" y="148"/></mask><g clip-path="url(#n)"><g mask="url(#o)"><path d="m0 148h150v193h-150z" fill="url(#c)"/><path clip-rule="evenodd" d="m132 264-57.5-65-57.5 65h33.5305v77h48.5306v-77z" fill="url(#d)" fill-rule="evenodd"/></g><g mask="url(#p)"><path d="m159 148h150v193h-150z" fill="url(#f)"/><path clip-rule="evenodd" d="m291 264-57-65-57 65h33.143v77h48.53v-77z" fill="url(#g)" fill-rule="evenodd"/></g><g mask="url(#q)"><path d="m318 148h150v193h-150z" fill="url(#i)"/><path clip-rule="evenodd" d="m450 264-57-65-57 65h33.143v77h48.53v-77z" fill="url(#j)" fill-rule="evenodd"/></g><g mask="url(#r)"><path d="m477 148h150v193h-150z" fill="url(#l)"/><path clip-rule="evenodd" d="m609 264-57-65-57 65h33.143v77h48.53v-77z" fill="url(#m)" fill-rule="evenodd"/></g><g fill="#fff"><path d="m208.918 104.308c38.768 0 20.227-58.259 38.515-58.259.927 0 1.939.1683 3.119.5051v-2.0206c-30.93-3.2834-20.396 42.1791-33.037 54.8918l-.759-1.9364-26.884-52.9554h-10.872z"/><path d="m269.029 94.6265v-16.2487h36.071v-8.8399h-36.071v-16.1644h41.802v-8.84h-52.083v58.9325h52.589v-8.8395z"/><path d="m331.563 94.6265 36.661-41.253v-8.84h-47.785v8.84h36.407l-37.166 41.253v8.8395h51.409v-8.8395z"/><path d="m377.431 103.466h10.956l5.309-10.6075c3.371-2.1048 5.815-2.9467 7.838-2.9467 5.309 0 7.416 5.5566 13.484 5.5566 3.287 0 7.67-1.5996 14.327-6.4827l7.333 14.4803h10.956l-30.003-59.7743h-10.198zm35.059-47.5668 16.181 31.6553c-2.444 1.4312-4.466 1.9364-6.236 1.9364-5.478 0-8.344-5.4723-14.496-5.4723-3.118 0-7.079 1.4312-12.557 5.5565z"/></g></g></svg>

<svg width="626" height="341" viewBox="0 0 626 341" fill="none" xmlns="http://www.w3.org/2000/svg">
    <g clip-path="url(#clip0_1104_1400)">
        <mask id="mask0_1104_1400" style="mask-type:alpha" maskUnits="userSpaceOnUse" x="0" y="148" width="150"
            height="193">
            <rect y="148" width="150" height="193" rx="8" fill="url(#paint0_linear_1104_1400)" />
        </mask>
        <g mask="url(#mask0_1104_1400)">
            <rect y="148" width="150" height="193" fill="url(#paint1_linear_1104_1400)" />
            <path fill-rule="evenodd" clip-rule="evenodd" d="M132 264L74.5 199L17 264H50.5305V341H99.0611V264H132Z"
                fill="url(#paint2_linear_1104_1400)" />
        </g>
        <mask id="mask1_1104_1400" style="mask-type:alpha" maskUnits="userSpaceOnUse" x="159" y="148" width="150"
            height="193">
            <rect x="159" y="148" width="150" height="193" rx="8" fill="url(#paint3_linear_1104_1400)" />
        </mask>
        <g mask="url(#mask1_1104_1400)">
            <rect x="159" y="148" width="150" height="193" fill="url(#paint4_linear_1104_1400)" />
            <path fill-rule="evenodd" clip-rule="evenodd" d="M291 264L234 199L177 264H210.143V341H258.673V264H291Z"
                fill="url(#paint5_linear_1104_1400)" />
        </g>
        <mask id="mask2_1104_1400" style="mask-type:alpha" maskUnits="userSpaceOnUse" x="318" y="148" width="150"
            height="193">
            <rect x="318" y="148" width="150" height="193" rx="8" fill="url(#paint6_linear_1104_1400)" />
        </mask>
        <g mask="url(#mask2_1104_1400)">
            <rect x="318" y="148" width="150" height="193" fill="url(#paint7_linear_1104_1400)" />
            <path fill-rule="evenodd" clip-rule="evenodd" d="M450 264L393 199L336 264H369.143V341H417.673V264H450Z"
                fill="url(#paint8_linear_1104_1400)" />
        </g>
        <mask id="mask3_1104_1400" style="mask-type:alpha" maskUnits="userSpaceOnUse" x="477" y="148" width="150"
            height="193">
            <rect x="477" y="148" width="150" height="193" rx="8" fill="url(#paint9_linear_1104_1400)" />
        </mask>
        <g mask="url(#mask3_1104_1400)">
            <rect x="477" y="148" width="150" height="193" fill="url(#paint10_linear_1104_1400)" />
            <path fill-rule="evenodd" clip-rule="evenodd" d="M609 264L552 199L495 264H528.143V341H576.673V264H609Z"
                fill="url(#paint11_linear_1104_1400)" />
        </g>
        <path
            d="M208.918 104.308C247.686 104.308 229.145 46.049 247.433 46.049C248.36 46.049 249.372 46.2173 250.552 46.5541V44.5335C219.622 41.2501 230.156 86.7126 217.515 99.4253L216.756 97.4889L189.872 44.5335H179L208.918 104.308Z"
            fill="white" />
        <path
            d="M269.029 94.6265V78.3778H305.1V69.5379H269.029V53.3735H310.831V44.5335H258.748V103.466H311.337V94.6265H269.029Z"
            fill="white" />
        <path
            d="M331.563 94.6265L368.224 53.3735V44.5335H320.439V53.3735H356.846L319.68 94.6265V103.466H371.089V94.6265H331.563Z"
            fill="white" />
        <path
            d="M377.431 103.466H388.387L393.696 92.8585C397.067 90.7537 399.511 89.9118 401.534 89.9118C406.843 89.9118 408.95 95.4684 415.018 95.4684C418.305 95.4684 422.688 93.8688 429.345 88.9857L436.678 103.466H447.634L417.631 43.6917H407.433L377.431 103.466ZM412.49 55.8992L428.671 87.5545C426.227 88.9857 424.205 89.4909 422.435 89.4909C416.957 89.4909 414.091 84.0186 407.939 84.0186C404.821 84.0186 400.86 85.4498 395.382 89.5751L412.49 55.8992Z"
            fill="white" />
    </g>
    <defs>
        <linearGradient id="paint0_linear_1104_1400" x1="75" y1="148" x2="75" y2="341" gradientUnits="userSpaceOnUse">
            <stop stop-color="#D9D9D9" />
            <stop offset="0.640625" stop-color="#D9D9D9" stop-opacity="0.25" />
            <stop offset="1" stop-color="#D9D9D9" stop-opacity="0" />
        </linearGradient>
        <linearGradient id="paint1_linear_1104_1400" x1="-5.58794e-07" y1="341" x2="189.969" y2="203.035"
            gradientUnits="userSpaceOnUse">
            <stop stop-color="#10B981" />
            <stop offset="1" stop-color="#D9F99D" />
        </linearGradient>
        <linearGradient id="paint2_linear_1104_1400" x1="17" y1="341" x2="158.452" y2="233.954"
            gradientUnits="userSpaceOnUse">
            <stop stop-color="#D9F99D" />
            <stop offset="1" stop-color="#10B981" />
        </linearGradient>
        <linearGradient id="paint3_linear_1104_1400" x1="234" y1="148" x2="234" y2="341" gradientUnits="userSpaceOnUse">
            <stop stop-color="#D9D9D9" />
            <stop offset="0.640625" stop-color="#D9D9D9" stop-opacity="0.25" />
            <stop offset="1" stop-color="#D9D9D9" stop-opacity="0" />
        </linearGradient>
        <linearGradient id="paint4_linear_1104_1400" x1="159" y1="341" x2="348.969" y2="203.035"
            gradientUnits="userSpaceOnUse">
            <stop stop-color="#F97316" />
            <stop offset="1" stop-color="#FEF08A" />
        </linearGradient>
        <linearGradient id="paint5_linear_1104_1400" x1="177" y1="341" x2="318.112" y2="235.14"
            gradientUnits="userSpaceOnUse">
            <stop stop-color="#FEF08A" />
            <stop offset="0.588542" stop-color="#F97316" />
            <stop offset="1" stop-color="#F97316" />
        </linearGradient>
        <linearGradient id="paint6_linear_1104_1400" x1="393" y1="148" x2="393" y2="341" gradientUnits="userSpaceOnUse">
            <stop stop-color="#D9D9D9" />
            <stop offset="0.640625" stop-color="#D9D9D9" stop-opacity="0.25" />
            <stop offset="1" stop-color="#D9D9D9" stop-opacity="0" />
        </linearGradient>
        <linearGradient id="paint7_linear_1104_1400" x1="318" y1="341" x2="507.969" y2="203.035"
            gradientUnits="userSpaceOnUse">
            <stop stop-color="#3B82F6" />
            <stop offset="1" stop-color="#E0F2FE" />
        </linearGradient>
        <linearGradient id="paint8_linear_1104_1400" x1="336" y1="341" x2="477.112" y2="235.14"
            gradientUnits="userSpaceOnUse">
            <stop stop-color="#E0F2FE" />
            <stop offset="1" stop-color="#3B82F6" />
        </linearGradient>
        <linearGradient id="paint9_linear_1104_1400" x1="552" y1="148" x2="552" y2="341" gradientUnits="userSpaceOnUse">
            <stop stop-color="#D9D9D9" />
            <stop offset="0.640625" stop-color="#D9D9D9" stop-opacity="0.25" />
            <stop offset="1" stop-color="#D9D9D9" stop-opacity="0" />
        </linearGradient>
        <linearGradient id="paint10_linear_1104_1400" x1="477" y1="341" x2="666.969" y2="203.035"
            gradientUnits="userSpaceOnUse">
            <stop stop-color="#9333EA" />
            <stop offset="1" stop-color="#DDD6FE" />
        </linearGradient>
        <linearGradient id="paint11_linear_1104_1400" x1="495" y1="341" x2="636.112" y2="235.14"
            gradientUnits="userSpaceOnUse">
            <stop stop-color="#DDD6FE" />
            <stop offset="1" stop-color="#9333EA" />
        </linearGradient>
        <clipPath id="clip0_1104_1400">
            <rect width="626" height="341" fill="white" />
        </clipPath>
    </defs>
</svg>
